assets/images/icon1.svg

<svg width="20" height="22" viewBox="0 0 20 22" fill="none" xmlns="http://www.w3.org/2000/svg">
<g id="icon">
<path id="icon_2" fill-rule="evenodd" clip-rule="evenodd" d="M14.5918 5C14.5728 4.9193 14.5531 4.83842 14.5325 4.75746C14.2648 3.70138 13.8433 2.55383 13.1559 1.65C12.4472 0.718018 11.4123 0 10 0C8.5877 0 7.5528 0.718018 6.84406 1.65C6.15673 2.55383 5.73518 3.70138 5.46747 4.75747C5.44695 4.83842 5.42722 4.9193 5.40825 5H3.78557C2.18414 5 0.856968 6.22455 0.750442 7.80044L0.00687452 18.8004C-0.110173 20.532 1.28239 22 3.042 22H16.958C18.7176 22 20.1102 20.532 19.9931 18.8004L19.2496 7.80044C19.143 6.22455 17.8159 5 16.2144 5H14.5918ZM5.94418 10C6.52516 10 6.95616 9.5684 6.95814 8.99817C6.9583 8.97438 6.95858 8.9506 6.95899 8.92682C6.95988 8.87413 6.9617 8.79455 6.96541 8.69194C6.97285 8.48652 6.98784 8.18999 7.018 7.83304C7.03941 7.57976 7.06824 7.29862 7.10693 7H12.8931C12.9318 7.29862 12.9606 7.57976 12.982 7.83305C13.0122 8.18999 13.0272 8.48652 13.0346 8.69194C13.0383 8.79455 13.0401 8.87413 13.041 8.92682C13.0414 8.95134 13.0418 8.97587 13.0419 9.0004C13.0419 9.0004 13.0419 10 14.0558 10C15.0698 10 15.0698 8.99866 15.0698 8.99866C15.0697 8.9636 15.0692 8.92854 15.0686 8.89349C15.0676 8.829 15.0654 8.7367 15.0612 8.62056C15.0528 8.38848 15.0361 8.06001 15.0029 7.66695C14.9856 7.46202 14.9637 7.23812 14.9359 7H16.2144C16.7482 7 17.1906 7.40818 17.2261 7.93348L17.9697 18.9335C18.0087 19.5107 17.5445 20 16.958 20H3.042C2.45547 20 1.99128 19.5107 2.03029 18.9335L2.77386 7.93348C2.80937 7.40818 3.25176 7 3.78557 7H5.06414C5.03633 7.23812 5.01441 7.46202 4.9971 7.66696C4.96389 8.06001 4.9472 8.38848 4.93879 8.62056C4.93459 8.7367 4.93245 8.829 4.93136 8.89349C4.93077 8.92785 4.93033 8.96221 4.93023 8.99658C4.92945 9.56716 5.36453 10 5.94418 10ZM7.4991 5H12.5009C12.2665 4.15322 11.9478 3.39466 11.5336 2.85C11.1017 2.28198 10.6156 2 10 2C9.38438 2 8.89835 2.28198 8.46639 2.85C8.0522 3.39466 7.73353 4.15322 7.4991 5Z" fill="#151618"/>
</g>
</svg>

<svg width="20" height="22" fill="none" xmlns="http://www.w3.org/2000/svg"><path fill-rule="evenodd" clip-rule="evenodd" d="m14.592 5-.06-.243c-.267-1.056-.689-2.203-1.376-3.107C12.447.718 11.412 0 10 0 8.588 0 7.553.718 6.844 1.65c-.687.904-1.109 2.051-1.377 3.107L5.408 5H3.786C2.184 5 .857 6.225.75 7.8l-.743 11C-.11 20.532 1.282 22 3.042 22h13.916c1.76 0 3.152-1.468 3.035-3.2l-.743-11C19.143 6.225 17.816 5 16.214 5h-1.622Zm-8.648 5a.986.986 0 0 0 1.014-1.002 6.786 6.786 0 0 1 .007-.306A18.074 18.074 0 0 1 7.107 7h5.786a18.849 18.849 0 0 1 .149 2s0 1 1.014 1 1.014-1.001 1.014-1.001l-.001-.106A20.05 20.05 0 0 0 14.936 7h1.278c.534 0 .977.408 1.012.933l.744 11A1.006 1.006 0 0 1 16.958 20H3.042c-.587 0-1.05-.49-1.012-1.067l.744-11A1.008 1.008 0 0 1 3.786 7h1.278a20.98 20.98 0 0 0-.133 1.893v.104C4.928 9.567 5.364 10 5.943 10ZM7.5 5h5.002c-.234-.847-.553-1.605-.967-2.15C11.102 2.282 10.616 2 10 2s-1.102.282-1.534.85C8.052 3.395 7.734 4.153 7.5 5Z" fill="#151618"/></svg>
